images/icons/gitHub.svg

<svg width="38" height="38" viewBox="0 0 38 38" fill="none" xmlns="http://www.w3.org/2000/svg">
<path d="M12.7101 29.8331C12.7101 29.9863 12.5339 30.1089 12.3117 30.1089C12.0589 30.1319 11.8827 30.0093 11.8827 29.8331C11.8827 29.6798 12.0589 29.5573 12.281 29.5573C12.5109 29.5343 12.7101 29.6569 12.7101 29.8331ZM10.3274 29.4883C10.2738 29.6415 10.427 29.8177 10.6569 29.8637C10.856 29.9403 11.0859 29.8637 11.1319 29.7105C11.1778 29.5573 11.0323 29.3811 10.8024 29.3121C10.6032 29.2585 10.381 29.3351 10.3274 29.4883ZM13.7137 29.3581C13.4915 29.4117 13.3383 29.5573 13.3613 29.7335C13.3843 29.8867 13.5835 29.9863 13.8133 29.9327C14.0355 29.879 14.1887 29.7335 14.1657 29.5802C14.1427 29.4347 13.9359 29.3351 13.7137 29.3581ZM18.7548 0C8.12863 0 0 8.06734 0 18.6935C0 27.1899 5.34758 34.4605 12.9859 37.0194C13.9665 37.1956 14.3113 36.5903 14.3113 36.0923C14.3113 35.6173 14.2883 32.9972 14.2883 31.3883C14.2883 31.3883 8.9254 32.5375 7.79919 29.1052C7.79919 29.1052 6.92581 26.8758 5.66935 26.3012C5.66935 26.3012 3.91492 25.0984 5.79194 25.1214C5.79194 25.1214 7.6996 25.2746 8.74919 27.098C10.427 30.0552 13.2387 29.2048 14.3343 28.6992C14.5105 27.4734 15.0085 26.623 15.5601 26.1173C11.2774 25.6423 6.95645 25.0218 6.95645 17.6516C6.95645 15.5448 7.53871 14.4875 8.76452 13.1391C8.56532 12.6411 7.91411 10.5879 8.96371 7.9371C10.5649 7.43911 14.25 10.0056 14.25 10.0056C15.7823 9.57661 17.4294 9.35444 19.0613 9.35444C20.6931 9.35444 22.3403 9.57661 23.8726 10.0056C23.8726 10.0056 27.5577 7.43145 29.1589 7.9371C30.2085 10.5956 29.5573 12.6411 29.3581 13.1391C30.5839 14.4952 31.3347 15.5524 31.3347 17.6516C31.3347 25.0448 26.8222 25.6347 22.5395 26.1173C23.2444 26.7226 23.8419 27.8718 23.8419 29.6722C23.8419 32.254 23.819 35.4488 23.819 36.077C23.819 36.575 24.1714 37.1802 25.1444 37.004C32.8056 34.4605 38 27.1899 38 18.6935C38 8.06734 29.381 0 18.7548 0ZM7.44677 26.4238C7.34718 26.5004 7.37016 26.6766 7.5004 26.8222C7.62298 26.9448 7.79919 26.9984 7.89879 26.8988C7.99839 26.8222 7.9754 26.646 7.84516 26.5004C7.72258 26.3778 7.54637 26.3242 7.44677 26.4238ZM6.61936 25.8032C6.56573 25.9028 6.64234 26.0254 6.79556 26.102C6.91815 26.1786 7.07137 26.1556 7.125 26.0484C7.17863 25.9488 7.10202 25.8262 6.94879 25.7496C6.79556 25.7036 6.67298 25.7266 6.61936 25.8032ZM9.10161 28.5306C8.97903 28.6302 9.025 28.8601 9.20121 29.0056C9.37742 29.1819 9.5996 29.2048 9.69919 29.0823C9.79879 28.9827 9.75282 28.7528 9.5996 28.6073C9.43105 28.431 9.20121 28.4081 9.10161 28.5306ZM8.22823 27.4044C8.10565 27.4811 8.10565 27.6802 8.22823 27.8565C8.35081 28.0327 8.55766 28.1093 8.65726 28.0327C8.77984 27.9331 8.77984 27.7339 8.65726 27.5577C8.55 27.3815 8.35081 27.3048 8.22823 27.4044Z" fill="white"/>
</svg>

<svg xmlns="http://www.w3.org/2000/svg" width="38" height="38" fill="none"><path fill="#fff" d="M12.71 29.833c0 .153-.176.276-.398.276-.253.023-.43-.1-.43-.276 0-.153.177-.276.399-.276.23-.023.43.1.43.276Zm-2.383-.345c-.053.154.1.33.33.376.199.076.429 0 .475-.154.046-.153-.1-.329-.33-.398-.199-.053-.421.023-.475.176Zm3.387-.13c-.223.054-.376.2-.353.375.023.154.223.253.452.2.223-.054.376-.2.353-.353-.023-.145-.23-.245-.452-.222ZM18.754 0C8.13 0 0 8.067 0 18.694 0 27.19 5.348 34.46 12.986 37.019c.98.177 1.325-.429 1.325-.927 0-.475-.023-3.095-.023-4.704 0 0-5.363 1.15-6.489-2.283 0 0-.873-2.23-2.13-2.804 0 0-1.754-1.203.123-1.18 0 0 1.908.154 2.957 1.977 1.678 2.957 4.49 2.107 5.585 1.601.177-1.226.675-2.076 1.226-2.582-4.283-.475-8.604-1.095-8.604-8.465 0-2.107.583-3.165 1.809-4.513-.2-.498-.85-2.551.199-5.202 1.6-.498 5.286 2.069 5.286 2.069a18.002 18.002 0 0 1 4.811-.652c1.632 0 3.28.223 4.812.652 0 0 3.685-2.575 5.286-2.069 1.05 2.659.398 4.704.2 5.202 1.225 1.356 1.976 2.413 1.976 4.513 0 7.393-4.513 7.983-8.796 8.465.705.606 1.303 1.755 1.303 3.555 0 2.582-.023 5.777-.023 6.405 0 .498.352 1.103 1.325.927C32.806 34.461 38 27.19 38 18.694 38 8.066 29.381 0 18.755 0ZM7.448 26.424c-.1.076-.077.253.053.398.123.123.3.176.399.077.1-.077.076-.253-.054-.399-.122-.122-.299-.176-.398-.076Zm-.828-.62c-.053.099.023.221.177.298.122.077.275.054.329-.054.054-.1-.023-.222-.176-.298-.153-.046-.276-.023-.33.053Zm2.483 2.727c-.123.1-.077.33.1.475.175.176.398.199.497.076.1-.1.054-.33-.1-.475-.168-.176-.398-.199-.497-.076Zm-.874-1.127c-.122.077-.122.276 0 .453.123.176.33.252.43.176.122-.1.122-.3 0-.475-.108-.177-.307-.253-.43-.154Z"/></svg>
